X:10733
T:Mevlana
O:Turkey
M:8/8
K:F
C2C2F4|C3F2FFF|C2C2F4|
|:F_GAAAAGF|FBBBBBA_G|FcccccBA|
Bc_dcd/2e/2dcB|ABcBc/2_d/2cBA|_GABAB/2c/2BAG|
F3_G2G3|F_GFEFGFE|F_GFEF3^G|
F/2G/2F/2G/2FED4|E/2F/2E/2F/2EDE3z|FF/2F/2F_GFEF2|
F_GABcBAG|F_GFEDEFG|E2_GF2FF2|
C2C2F4|C3F2FFF|C2C2F4|C3F2FFF|C2C2F4:|
